storage/app/icons/phosphoricons/regular/google-photos-logo.svg

<svg xmlns="http://www.w3.org/2000/svg" fill="currentColor" viewBox="0 0 256 256"><path d="M232 120h-39.51A72 72 0 0 0 128 16a8 8 0 0 0-8 8v39.51A72 72 0 0 0 16 128a8 8 0 0 0 8 8h39.51A72 72 0 0 0 128 240a8 8 0 0 0 8-8v-39.51A72 72 0 0 0 240 128a8 8 0 0 0-8-8m-48-32a55.3 55.3 0 0 1-10 32h-38V32.57A56.09 56.09 0 0 1 184 88M88 72a55.3 55.3 0 0 1 32 10v38H32.57A56.09 56.09 0 0 1 88 72m-16 96a55.3 55.3 0 0 1 10-32h38v87.43A56.09 56.09 0 0 1 72 168m96 16a55.3 55.3 0 0 1-32-10v-38h87.43A56.09 56.09 0 0 1 168 184"/></svg>

<svg xmlns="http://www.w3.org/2000/svg" viewBox="0 0 256 256" fill="currentColor"><path d="M232,120H192.49A72,72,0,0,0,128,16a8,8,0,0,0-8,8V63.51A72,72,0,0,0,16,128a8,8,0,0,0,8,8H63.51A72,72,0,0,0,128,240a8,8,0,0,0,8-8V192.49A72,72,0,0,0,240,128,8,8,0,0,0,232,120ZM184,88A55.31,55.31,0,0,1,174,120H136V32.57A56.09,56.09,0,0,1,184,88ZM88,72a55.31,55.31,0,0,1,32,10v38H32.57A56.09,56.09,0,0,1,88,72ZM72,168a55.31,55.31,0,0,1,10-32h38v87.43A56.09,56.09,0,0,1,72,168Zm96,16A55.31,55.31,0,0,1,136,174V136h87.43A56.09,56.09,0,0,1,168,184Z"/></svg>
